production/assets/icons/cafe.svg

<svg xmlns="http://www.w3.org/2000/svg" width="16" height="16" viewBox="0 0 16 16"><path fill-rule="evenodd" clip-rule="evenodd" d="M14.158 11.5c-.541.312-1.125.425-1.641.359-.08.168-.164.332-.252.492 1.121.387 1.807.905 1.807 1.475 0 1.201-3.043 2.174-6.793 2.174-3.752 0-6.794-.973-6.794-2.174 0-.563.668-1.074 1.764-1.461-.866-1.58-1.4-3.579-1.443-5.761h.009c-.002-.006-.002-.013-.002-.019 0-.536 1.773-.992 4.255-1.164.072.104.215.222.253.253-2.205.145-3.789.545-3.789 1.017 0 .594 2.512 1.076 5.609 1.076 3.099 0 5.611-.482 5.611-1.076 0-.479-1.637-.885-3.897-1.024.039-.091.089-.19.134-.274 2.722.145 4.72.624 4.72 1.192a.193.193 0 0 1-.008.058c-.008.391-.033.776-.072 1.154.732-.035 1.389.265 1.703.856.488.919-.037 2.195-1.174 2.847zM3.098 8.269c-.65 0-1.307-.271-1.307-.271.261 4.347 2.09 3.803 2.09 3.803-.522-.272-.783-3.532-.783-3.532zm8.304 5.274l-.027.011c-.432.61-2.139 1.065-4.176 1.065-2.12 0-3.88-.492-4.223-1.14a.51.51 0 0 0-.088.278c0 .756 1.918 1.37 4.283 1.37 2.366 0 4.282-.614 4.282-1.37a.487.487 0 0 0-.051-.214zm1.227-2.433l-.002.005c.027.003.057.004.084.005l-.082-.01zm1.892-1.995c-.193-.322-.57-.505-1.004-.531-.02.108-.328 1.816-.689 2.535.285-.012.586-.088.873-.233.795-.407 1.162-1.199.82-1.771zM8.874 5.229c-.134.201-.29.658-.29.658l.006.001c-.3 1.013.344 1.3.527 1.36-.279-.083-1.719-.55-1.705-1.456l.003.003-.001-.022a.776.776 0 0 1 .02-.156h-.01a.914.914 0 0 1 .104-.268h.002l.018-.034a1 1 0 0 1 .087-.126l.006-.006-.01-.008c.089-.134.209-.276.366-.424 1.808-1.725 1.056-2.038.603-2.509 0 0 2.036.313.565 2.509a6.42 6.42 0 0 0-.291.478zm.243 2.019l.047.013-.047-.013zM7.279 5.616h-.138c-.171 0-.34.001-.508.005a2.098 2.098 0 0 1-.029-.267c.216-.004.436-.007.657-.007h.075c-.072.183-.057.268-.057.269zm.273-2.235c-.75.73-1.047 1.328-1.098 1.805l-.01-.003s-.004.233.017.378v.001l.001.009a.398.398 0 0 0 .034.118c.214.749 1.056 1.073 1.056 1.073S6.276 6.36 5.565 5.659h-.007a2.868 2.868 0 0 1-.267-.339h-.003c-.333-.529-.288-1.185.689-1.939C8.619 1.344 7.271.673 6.79 0c0 0 3.306.903.762 3.381z"/></svg>

<?xml version="1.0" encoding="utf-8"?>
<!-- Generator: Adobe Illustrator 16.0.0, SVG Export Plug-In . SVG Version: 6.00 Build 0)  -->
<!DOCTYPE svg PUBLIC "-//W3C//DTD SVG 1.1//EN" "http://www.w3.org/Graphics/SVG/1.1/DTD/svg11.dtd">
<svg version="1.1" id="Layer_1" xmlns="http://www.w3.org/2000/svg" xmlns:xlink="http://www.w3.org/1999/xlink" x="0px" y="0px"
	 width="16px" height="16px" viewBox="0 0 16 16" enable-background="new 0 0 16 16" xml:space="preserve">
<path fill-rule="evenodd" clip-rule="evenodd" d="M14.158,11.5c-0.541,0.312-1.125,0.425-1.641,0.359
	c-0.08,0.168-0.164,0.332-0.252,0.492c1.121,0.387,1.807,0.905,1.807,1.475c0,1.201-3.043,2.174-6.793,2.174
	c-3.752,0-6.794-0.973-6.794-2.174c0-0.563,0.668-1.074,1.764-1.461c-0.866-1.58-1.4-3.579-1.443-5.761h0.009
	C0.813,6.598,0.813,6.591,0.813,6.585c0-0.536,1.773-0.992,4.255-1.164C5.14,5.525,5.283,5.643,5.321,5.674
	C3.116,5.819,1.532,6.219,1.532,6.691c0,0.594,2.512,1.076,5.609,1.076c3.099,0,5.611-0.482,5.611-1.076
	c0-0.479-1.637-0.885-3.897-1.024c0.039-0.091,0.089-0.19,0.134-0.274c2.722,0.145,4.72,0.624,4.72,1.192
	c0,0.019-0.002,0.039-0.008,0.058c-0.008,0.391-0.033,0.776-0.072,1.154c0.732-0.035,1.389,0.265,1.703,0.856
	C15.82,9.572,15.295,10.848,14.158,11.5z M3.098,8.269c-0.65,0-1.307-0.271-1.307-0.271c0.261,4.347,2.09,3.803,2.09,3.803
	C3.359,11.529,3.098,8.269,3.098,8.269z M11.402,13.543c-0.01,0.004-0.018,0.008-0.027,0.011c-0.432,0.61-2.139,1.065-4.176,1.065
	c-2.12,0-3.88-0.492-4.223-1.14c-0.058,0.09-0.088,0.183-0.088,0.278c0,0.756,1.918,1.37,4.283,1.37c2.366,0,4.282-0.614,4.282-1.37
	C11.453,13.685,11.436,13.613,11.402,13.543z M12.629,11.11l-0.002,0.005c0.027,0.003,0.057,0.004,0.084,0.005L12.629,11.11z
	 M14.521,9.115c-0.193-0.322-0.57-0.505-1.004-0.531c-0.02,0.108-0.328,1.816-0.689,2.535c0.285-0.012,0.586-0.088,0.873-0.233
	C14.496,10.479,14.863,9.687,14.521,9.115z M8.874,5.229C8.74,5.43,8.584,5.887,8.584,5.887L8.59,5.888
	C8.29,6.901,8.934,7.188,9.117,7.248c-0.279-0.083-1.719-0.55-1.705-1.456l0.003,0.003C7.415,5.788,7.415,5.78,7.414,5.773
	C7.416,5.722,7.421,5.67,7.434,5.617c-0.004,0-0.007,0-0.01,0c0.02-0.101,0.062-0.194,0.104-0.268c0,0,0.001,0,0.002,0
	c0.006-0.011,0.012-0.023,0.018-0.034C7.586,5.25,7.622,5.205,7.635,5.189c0.003-0.004,0.006-0.006,0.006-0.006l-0.01-0.008
	C7.72,5.041,7.84,4.899,7.997,4.751c1.808-1.725,1.056-2.038,0.603-2.509c0,0,2.036,0.313,0.565,2.509
	C9.051,4.922,8.955,5.081,8.874,5.229z M9.117,7.248c0.031,0.009,0.047,0.013,0.047,0.013S9.148,7.257,9.117,7.248z M7.279,5.616
	c-0.045,0-0.091,0-0.138,0c-0.171,0-0.34,0.001-0.508,0.005c-0.011-0.064-0.027-0.18-0.029-0.267C6.82,5.35,7.04,5.347,7.261,5.347
	c0.025,0,0.05,0,0.075,0C7.264,5.53,7.279,5.615,7.279,5.616L7.279,5.616z M7.552,3.381c-0.75,0.73-1.047,1.328-1.098,1.805
	l-0.01-0.003c0,0-0.004,0.233,0.017,0.378c0,0,0,0,0,0.001c0.001,0.003,0.001,0.005,0.001,0.009C6.47,5.619,6.481,5.662,6.496,5.689
	C6.71,6.438,7.552,6.762,7.552,6.762S6.276,6.36,5.565,5.659c-0.002,0-0.004,0-0.007,0C5.427,5.524,5.291,5.32,5.291,5.32l-0.003,0
	C4.955,4.791,5,4.135,5.977,3.381C8.619,1.344,7.271,0.673,6.79,0C6.79,0,10.096,0.903,7.552,3.381z"/>
</svg>
